img/footer/mail.svg

<svg fill="none" height="29" viewBox="0 0 28 29" width="28" xmlns="http://www.w3.org/2000/svg"><circle cx="14" cy="14.1943" fill="#e3b873" r="14"/><g stroke="#fff" stroke-linecap="round" stroke-linejoin="round" stroke-width="1.5"><path d="m8.4 8.99414h11.2c.77 0 1.4.63 1.4 1.39996v8.4c0 .77-.63 1.4-1.4 1.4h-11.2c-.77 0-1.4-.63-1.4-1.4v-8.4c0-.76996.63-1.39996 1.4-1.39996z"/><path d="m21 10.3945-7 4.9-7-4.9"/></g></svg>

<svg width="28" height="29" viewBox="0 0 28 29" fill="none" xmlns="http://www.w3.org/2000/svg">
<circle cx="14" cy="14.1943" r="14" fill="#E3B873"/>
<path d="M8.4 8.99414H19.6C20.37 8.99414 21 9.62414 21 10.3941V18.7941C21 19.5641 20.37 20.1941 19.6 20.1941H8.4C7.63 20.1941 7 19.5641 7 18.7941V10.3941C7 9.62414 7.63 8.99414 8.4 8.99414Z" stroke="white" stroke-width="1.5" stroke-linecap="round" stroke-linejoin="round"/>
<path d="M21 10.3945L14 15.2945L7 10.3945" stroke="white" stroke-width="1.5" stroke-linecap="round" stroke-linejoin="round"/>
</svg>
